X: 2042
T: La Katherine.
%R: _
B: Henry Playford "Apollo's Banquet", London 1687 (5th Edition)
F: https://archive.org/details/apollosbanquetco01rugg
Z: 2017 John Chambers <jc:trillian.mit.edu>
Q: "[Play every Strain twice.]"
N: The last bars are missing a couple of 1/4 notes.
M: 3/2
L: 1/8
K: Gm
% - - - - - - - - - -
|:\
g3de2 d2c3d | B3AG2 d3=ef2 | =e2f3g ^f3=ed2 :: a3gfe c2f4 | d3cBA G2c2F2 | B3cde
c2B2f2 | d3dg2 =e3ea2 | ^f3=ed2 b3ag2 | a2^f3g  g6 :: B2cBAG d2d2g2 | =e2e^fg2 ^fg^f=edc |
B2cBAG d2d2g2 | =e2efg2 ^f6 :: g2c2c2 f2B2B2 | e2fedc dedcB2 | b2g2g2 a2d2d2 | g2a2^f2
g2def2 | c2cde2 B2Bcd2 | cBA3G G6- :: G2def2 c2cde2 | B2Bc d2cB | A3G G4 |]
% - - - - - - - - - -

%%sep 1 1 500
%%sep 1 1 500

